icons/chevrons-down-16.svg

<svg width="16" height="16" viewBox="0 0 16 16" fill="none" xmlns="http://www.w3.org/2000/svg">
<path fill-rule="evenodd" clip-rule="evenodd" d="M3.10823 8.25105C3.44296 7.91632 3.98568 7.91632 4.32041 8.25105L8.00003 11.9307L11.6797 8.25105C12.0144 7.91632 12.5571 7.91632 12.8918 8.25105C13.2266 8.58579 13.2266 9.1285 12.8918 9.46323L8.60613 13.7489C8.27139 14.0837 7.72868 14.0837 7.39394 13.7489L3.10823 9.46323C2.77349 9.1285 2.77349 8.58579 3.10823 8.25105Z" fill="#272431"/>
<path fill-rule="evenodd" clip-rule="evenodd" d="M3.10823 2.25105C3.44296 1.91632 3.98568 1.91632 4.32041 2.25105L8.00003 5.93067L11.6797 2.25105C12.0144 1.91632 12.5571 1.91632 12.8918 2.25105C13.2266 2.58579 13.2266 3.1285 12.8918 3.46323L8.60613 7.74895C8.27139 8.08368 7.72868 8.08368 7.39394 7.74895L3.10823 3.46323C2.77349 3.1285 2.77349 2.58579 3.10823 2.25105Z" fill="#272431"/>
</svg>

<svg xmlns="http://www.w3.org/2000/svg" width="16" height="16" viewBox="0 0 16 16"><path fill-rule="evenodd" d="M3.108 8.251a.857.857 0 011.212 0L8 11.931l3.68-3.68a.857.857 0 111.212 1.212L8.606 13.75a.857.857 0 01-1.212 0L3.108 9.463a.857.857 0 010-1.212z"/><path fill-rule="evenodd" d="M3.108 2.251a.857.857 0 011.212 0L8 5.931l3.68-3.68a.857.857 0 111.212 1.212L8.606 7.75a.857.857 0 01-1.212 0L3.108 3.463a.857.857 0 010-1.212z"/></svg>
